images/iconTwitter_dark.svg

<svg width="19" height="15" viewBox="0 0 19 15" fill="none" xmlns="http://www.w3.org/2000/svg">
<g clip-path="url(#clip0_3_188)">
<path d="M18.7314 1.73609C18.0233 2.04068 17.315 2.2309 16.6072 2.3073C17.4066 1.82762 17.9474 1.14995 18.2292 0.274347C17.4978 0.708269 16.7175 1.00514 15.8877 1.16511C15.1566 0.388478 14.2583 0 13.1921 0C12.1719 0 11.3021 0.359715 10.5822 1.0793C9.8628 1.79885 9.50304 2.6687 9.50304 3.68896C9.50304 3.96302 9.53345 4.24485 9.59441 4.53416C8.08675 4.45803 6.67245 4.07924 5.35129 3.39777C4.0302 2.71622 2.90901 1.80822 1.98773 0.673746C1.65269 1.24468 1.48512 1.86534 1.48512 2.53537C1.48512 3.16735 1.63357 3.75372 1.93068 4.29434C2.22759 4.83487 2.62743 5.27263 3.12999 5.6077C2.53598 5.58482 1.98016 5.42869 1.46248 5.13934V5.18502C1.46248 6.07595 1.7423 6.85815 2.30188 7.53221C2.86153 8.2062 3.5678 8.63044 4.42052 8.80565C4.10069 8.8893 3.77702 8.93119 3.44966 8.93119C3.23644 8.93119 3.00418 8.91218 2.75296 8.87438C2.98898 9.61281 3.42302 10.2198 4.05492 10.696C4.68694 11.1718 5.40269 11.4171 6.20221 11.4327C4.86216 12.4833 3.33553 13.0086 1.62233 13.0086C1.29486 13.0086 0.997991 12.9937 0.731445 12.9631C2.44469 14.067 4.33299 14.619 6.39647 14.619C7.70611 14.619 8.93583 14.4117 10.0852 13.9966C11.2352 13.5818 12.2173 13.0259 13.0321 12.329C13.8467 11.6324 14.5492 10.831 15.1393 9.92492C15.7293 9.0188 16.1689 8.07282 16.4585 7.08681C16.7477 6.10059 16.8924 5.11286 16.8924 4.12284C16.8924 3.90962 16.8886 3.7498 16.8809 3.64315C17.6045 3.11802 18.2212 2.48212 18.7314 1.73609Z" fill="#90A4B3"/>
</g>
<defs>
<clipPath id="clip0_3_188">
<rect width="19" height="15" fill="white"/>
</clipPath>
</defs>
</svg>

<svg xmlns="http://www.w3.org/2000/svg" width="19" height="15" fill="none"><g clip-path="url(#a)"><path fill="#90A4B3" d="M18.731 1.736a7.36 7.36 0 0 1-2.124.571c.8-.48 1.34-1.157 1.622-2.033a7.243 7.243 0 0 1-2.341.891C15.157.388 14.258 0 13.192 0c-1.02 0-1.89.36-2.61 1.08-.72.719-1.079 1.589-1.079 2.609 0 .274.03.556.091.845a10.28 10.28 0 0 1-4.243-1.136A10.459 10.459 0 0 1 1.988.674a3.614 3.614 0 0 0-.503 1.861c0 .632.149 1.219.446 1.76.297.54.696.978 1.199 1.313a3.66 3.66 0 0 1-1.668-.469v.046c0 .891.28 1.673.84 2.347A3.63 3.63 0 0 0 4.42 8.806c-.32.083-.644.125-.971.125-.214 0-.446-.019-.697-.057a3.61 3.61 0 0 0 1.302 1.822 3.6 3.6 0 0 0 2.147.737c-1.34 1.05-2.866 1.576-4.58 1.576-.327 0-.624-.015-.89-.046 1.713 1.104 3.601 1.656 5.664 1.656 1.31 0 2.54-.207 3.69-.622 1.15-.415 2.131-.971 2.946-1.668a11.157 11.157 0 0 0 2.107-2.404c.59-.906 1.03-1.852 1.32-2.838a10.486 10.486 0 0 0 .422-3.444 7.725 7.725 0 0 0 1.85-1.907Z"/></g><defs><clipPath id="a"><path fill="#fff" d="M0 0h19v15H0z"/></clipPath></defs></svg>
